X:7
T:Polska efter P{\aa}l Karl
R:polska K1
A:Dalarna
Z:hn-k1-7
M:3/4
K:Am
c|A2 dB cc|d2 ^fe/d/ ec|A2 dB cc|d2 ^fe/d/ ee|eg a2 ag|S=fe/d/ e3:|
|:c|A2 ag ae|=f2 fe/d/ ec|A2 ag ae|=f2 fe/d/ eA|Sd>c A<c BG|SB<c A3:|

